Sources/FrostedUI/Resources/Icons.xcassets/twitter12.imageset/twitter-12.svg

<svg width="13" height="12" viewBox="0 0 13 12" fill="none" xmlns="http://www.w3.org/2000/svg" data-fui-icon="true">
  <path
    d="M8.1637 0.900391C8.86737 0.900391 9.51404 1.14968 10.0182 1.56152C10.2998 1.48587 10.5702 1.38165 10.8239 1.25098L10.9254 1.20801C11.1653 1.12849 11.4193 1.18963 11.5953 1.34082C11.7715 1.4925 11.871 1.74098 11.817 1.99707C12.1592 2.1167 12.3648 2.54706 12.1188 2.90625C11.8307 3.33046 11.4782 3.70997 11.0787 4.0332L11.0797 4.03613C11.0797 7.30566 8.55043 11.0993 3.91272 11.0996C2.65404 11.0995 1.47007 10.7776 0.44104 10.2139C0.103535 10.0287 0.0317107 9.66141 0.114868 9.39844C0.195823 9.1432 0.445957 8.89903 0.802368 8.90918L0.925415 8.91113C1.39731 8.91113 1.8505 8.8319 2.27112 8.68652C1.76367 8.36609 1.36191 7.89525 1.1344 7.33496C1.05083 7.12903 1.06756 6.93856 1.14417 6.7832C0.582083 6.2608 0.227285 5.52116 0.227173 4.69434C0.227173 4.47941 0.331402 4.302 0.483032 4.19336C0.331228 3.84521 0.245728 3.46135 0.245728 3.05762C0.245743 2.59122 0.359093 2.14921 0.559204 1.75879L0.609009 1.67578C0.874482 1.29 1.42033 1.3044 1.69788 1.625C2.58995 2.65805 3.8393 3.38292 5.2594 3.61621C5.34175 2.0947 6.61958 0.900676 8.1637 0.900391ZM8.1637 2.09961C7.21225 2.0999 6.45581 2.85751 6.45569 3.77246C6.45569 3.90261 6.47093 4.03018 6.49963 4.1543L6.67932 4.92773L5.88538 4.88867C4.18039 4.804 2.63388 4.13103 1.4469 3.07324C1.45219 3.64235 1.74689 4.1487 2.20178 4.44824L3.97913 5.61719L1.85315 5.54883C1.78796 5.54671 1.7229 5.54145 1.65881 5.53516C1.89586 5.93336 2.29699 6.22875 2.776 6.3291C2.7819 6.33033 2.78862 6.33183 2.79456 6.33301H2.79358L2.79846 6.33398L4.65491 6.71094L2.91956 7.47168C2.84799 7.50297 2.77206 7.52014 2.71936 7.53125C3.0105 7.77743 3.38753 7.93108 3.80237 7.93848L5.51428 7.96777L4.15881 9.0127C3.73667 9.33828 3.26177 9.60012 2.75061 9.78711C3.12604 9.86028 3.51496 9.90036 3.91272 9.90039C7.76659 9.90013 9.87947 6.77087 9.87952 4.03613C9.87952 3.94872 9.87774 3.85903 9.87366 3.76953L9.85803 3.44336L10.0299 3.32031C9.95666 3.24889 9.90245 3.16408 9.8717 3.08008C9.84443 3.0053 9.8308 2.91879 9.83459 2.83008L9.64026 2.86816L9.41467 2.63184C9.10314 2.30582 8.65846 2.09961 8.1637 2.09961Z"
    fill="currentColor"
  />
</svg>

<svg xmlns="http://www.w3.org/2000/svg" width="13" height="12" fill="none" data-fui-icon="true" viewBox="0 0 13 12"><path fill="currentColor" d="M8.164.9c.703 0 1.35.25 1.854.662a4 4 0 0 0 .806-.311l.101-.043a.7.7 0 0 1 .67.133c.176.151.276.4.222.656.342.12.548.55.302.91-.288.423-.64.803-1.04 1.126v.003c0 3.27-2.529 7.063-7.166 7.064a7.2 7.2 0 0 1-3.472-.886.69.69 0 0 1-.326-.816.7.7 0 0 1 .687-.489l.123.002c.472 0 .926-.08 1.346-.224a2.9 2.9 0 0 1-1.137-1.352.66.66 0 0 1 .01-.552 2.84 2.84 0 0 1-.917-2.089c0-.215.104-.392.256-.5a2.84 2.84 0 0 1 .076-2.435l.05-.083c.265-.386.811-.372 1.089-.051a6 6 0 0 0 3.561 1.991C5.342 2.095 6.62.901 8.164.9m0 1.2c-.952 0-1.708.758-1.708 1.672q0 .195.044.382l.18.774-.795-.04a7.2 7.2 0 0 1-4.438-1.815c.005.57.3 1.076.755 1.375l1.777 1.17-2.126-.07a3 3 0 0 1-.194-.013c.237.398.638.694 1.117.794l.019.004h-.001l.004.001 1.857.377-1.735.76a1 1 0 0 1-.2.06c.29.246.668.4 1.082.407l1.712.03L4.16 9.013a5.3 5.3 0 0 1-1.408.774q.564.111 1.162.113c3.854 0 5.966-3.13 5.967-5.864q0-.132-.006-.266l-.016-.327.172-.123a.7.7 0 0 1-.158-.24.7.7 0 0 1-.037-.25l-.195.038-.225-.236A1.73 1.73 0 0 0 8.164 2.1"/></svg>
